src/themes/files/dart.svg

<svg width="16" height="16" viewBox="0 0 16 16" fill="none" xmlns="http://www.w3.org/2000/svg">
<path d="M10.7667 2.76669L13 5H4V4L6.85757 2.28546C7.6236 1.82584 8.00661 1.59603 8.40559 1.53872C8.75761 1.48815 9.11676 1.53236 9.446 1.6668C9.81917 1.81917 10.135 2.13501 10.7667 2.76669Z" fill="#5BAFD4"/>
<path d="M15 13H13H5L2.7667 10.7667C2.13501 10.135 1.81917 9.81917 1.6668 9.446C1.53236 9.11676 1.48815 8.75761 1.53872 8.40559C1.59603 8.00661 1.82584 7.6236 2.28546 6.85757L2.28546 6.85757L4 4H10.6745C11.1637 4 11.4083 4 11.6385 4.05526C11.8425 4.10425 12.0376 4.18506 12.2166 4.29472C12.4184 4.4184 12.5914 4.59136 12.9373 4.93726L15 7V13Z" fill="#5BAFD4"/>
<path d="M15 13H13H5L2.7667 10.7667C2.13501 10.135 1.81917 9.81917 1.6668 9.446C1.53236 9.11676 1.48815 8.75761 1.53872 8.40559C1.59603 8.00661 1.82584 7.6236 2.28546 6.85757L2.28546 6.85757L4 4H10.6745C11.1637 4 11.4083 4 11.6385 4.05526C11.8425 4.10425 12.0376 4.18506 12.2166 4.29472C12.4184 4.4184 12.5914 4.59136 12.9373 4.93726L15 7V13Z" fill="black" fill-opacity="0.25" style="mix-blend-mode:plus-darker"/>
<path d="M13 13L4 4V10.6745C4 11.1637 4 11.4083 4.05526 11.6385C4.10425 11.8425 4.18506 12.0376 4.29472 12.2166C4.4184 12.4184 4.59136 12.5914 4.93726 12.9373L7 15H13V13Z" fill="#5BAFD4"/>
</svg>

<svg version="1.2" xmlns="http://www.w3.org/2000/svg" viewBox="0 0 16 16" width="16" height="16">
	<title>dart-svg</title>
	<style>
		.s0 { fill: #5bafd4 } 
		.s1 { fill: #7380f9 } 
	</style>
	<g id="Layer 1">
		<path class="s0" d="m10.8 2.8l2.2 2.2h-9v-1l2.9-1.7c0.7-0.5 1.1-0.7 1.5-0.8q0.5 0 1 0.2c0.4 0.1 0.7 0.4 1.4 1.1z"/>
		<path class="s1" d="m15 13h-2-8l-2.2-2.2c-0.7-0.7-1-1-1.1-1.4q-0.2-0.5-0.2-1c0.1-0.4 0.3-0.8 0.8-1.5l1.7-2.9h6.7c0.5 0 0.7 0 0.9 0.1q0.3 0 0.6 0.2c0.2 0.1 0.4 0.3 0.7 0.6l2.1 2.1z"/>
		<path class="s0" d="m13 13l-9-9v6.7c0 0.5 0 0.7 0.1 0.9q0 0.3 0.2 0.6c0.1 0.2 0.3 0.4 0.6 0.7l2.1 2.1h6z"/>
	</g>
</svg>
